X: 1034
T: A Theater Tune.
%R: jig
B: Henry Playford "Apollo's Banquet", London 1687 (5th Edition)
F: https://archive.org/details/apollosbanquetco01rugg
Z: 2017 John Chambers <jc:trillian.mit.edu>
M: 6/4
L: 1/4
K: Bb
% - - - - - - - - - -
B |\
B2F G2A | B2c d2e |\
f>gf efd | c>BA B2F |\
G>AB D2E | F3- F2 :: f |\
f>gf e2d |
cdB A2G |\
ABc cd=B | c3- c2B |\
AGA F2f | fef d2f |\
A2B BcA | B3- B2 |]
% - - - - - - - - - -

%%sep 1 1 500
%%sep 1 1 500

